!!!!SEGMENT: pl-cz--iii-747--001-005_zebrowski-marcin-jozef--missa-pastoritia-benedictus.krn
!!!cenid: 17xx:2365
!!!COM: Żebrowski, Marcin Józef
!!!COM-rismID: pe30020322
!!!CDT: 1702-1770/06/29
!!!CNT: Polish
!!!OPR: Missa Pastoritia
!!!OTL: Benedictus
!!!OMV: 005
!!!PDT:
!!!AGN: Sacred; Mass
!!!YEC: Copyright 2022 Narodowy Instytut Fryderyka Chopina (https://polishscores.org)
!!!YEM: License CC-BY-4.0 (https://creativecommons.org/licenses/by/4.0)
!!!SMS-siglum: PL-CZ
!!!SMS-shelfmark: III-747
!!!SMS-shelfwork: 001-005 M
!!!SMS-variant:
!!!SMS-altvar:
!!!NIFC-rismSourceID: 300033498
!!!NIFC-rismChildID: 300033498
!!!NIFC-islandoraID: pl-cz:25310
!!!URL-pdf-islandora: https://repozytorium.nifc.pl/islandora/object/pl-cz%3A25310/datastream/PDF/view
!!!URL-scan: https://polish.musicsources.pl/pl/lokalizacje/galeria/rekopisy/1477 @EN{Scan on Polish Music Sources Website} @PL{Skany w portalu Dziedzictwo Muzyki Polskiej w otwartym dostępie}
!!!IIIF:
!!!ONB-nifc: UWAGA: części Mszy: 1. Kyrie, 2. Et in terra, 3. Patrem, 4. Sanctus, 5. Benedictus
!!!AIN: 1 alto 1 bass 2 clrno 2 organ 1 soprn 1 tenor 1 timpa 2 violn
!!!key: A
**kern	**fba	**dynam	**kern	**dynam	**kern	**kern	**dynam	**kern	**kern	**kern	**text	**kern	**kern	**kern	**kern
*	*	*	*	*	*group3	*group3	*	*group2	*group2	*group2	*	*group2	*	*group1	*group1
*part11	*	*	*part10	*	*part9	*part8	*	*part7	*part6	*part5	*	*part4	*part3	*part2	*part1
*staff11	*	*	*staff10	*	*staff9	*staff8	*	*staff7	*staff6	*staff5	*	*staff4	*staff3	*staff2	*staff1
*I"Baſso pro Organo.	*	*	*I"Basſo pro Organo.	*	*I"Violino Secondo.	*I"Violino Primo.	*	*I"Baſso.	*I"Tenore.	*I"Alto.	*	*I"Canto.	*I"Tympana.	*I"Clarino 2do.	*I"Clarino Primo.
*I'cb et org	*	*	*I'cb et org	*	*I'vl 2	*I'vl 1	*	*I'B	*I'T	*I'A	*	*I'S	*I'timp	*I'clno 2	*I'clno 1
*Iorgan	*	*	*Iorgan	*	*Ivioln	*Ivioln	*	*Ibass	*Itenor	*Ialto	*	*Isoprn	*Itimpa	*Iclrno	*Iclrno
*ICklav	*	*	*ICklav	*	*ICstr	*ICstr	*	*ICvox	*ICvox	*ICvox	*	*ICvox	*ICidio	*ICbras	*ICbras
*clefF4	*	*	*clefF4	*	*	*clefG2	*	*	*	*clefC3	*	*	*	*	*
*k[f#c#g#]	*	*	*k[f#g#c#]	*	*	*k[f#c#g#]	*	*	*	*k[f#c#g#]	*	*	*	*	*
*A:	*	*	*A:	*	*	*A:	*	*	*	*A:	*	*	*	*	*
*M3/4	*	*	*M3/4	*	*	*M3/4	*	*	*	*M3/4	*	*	*	*	*
=1	=1	=1	=1	=1	=1	=1	=1	=1	=1	=1	=1	=1	=1	=1	=1
!LO:TX:a:i:t=Solo	!	!	!LO:TX:a:i:t=Solo.	!	!	!LO:TX:a:i:t=Solo.	!	!	!	!LO:TX:a:t=15.	!	!	!	!	!
!LO:TX:a:Bi:t=Gratioso.	!	!	!LO:TX:a:Bi:t=Gratioso	!	!LO:TX:a:t=Benedict(us)\nTacet	!LO:TX:a:Bi:t=Gratioso.	!	!LO:TX:a:t=Benedictus Tacet	!LO:TX:a:t=Benedictus Tacet	!LO:TX:a:Bi:t=Gratioso.	!	!LO:TX:a:t=Benedictus Tacet	!LO:TX:a:t=Benedictus Tacet	!LO:TX:a:t=Benedict(us)\nTacet	!LO:TX:a:t=Benedict(us)\nTacet
8AA/L	.	p	8AA/L	.	2.ryy	[4a/	.	2.ryy	2.ryy	0.r	.	2.ryy	2.ryy	2.ryy	2.ryy
8AA/	.	.	8AA/	.	.	.	.	.	.	.	.	.	.	.	.
8C#/|	6	.	8C#/	.	.	16a/LL]	.	.	.	.	.	.	.	.	.
.	.	.	.	.	.	16cc#/	.	.	.	.	.	.	.	.	.
8C#/|	.	.	8C#/	.	.	(16b/	.	.	.	.	.	.	.	.	.
.	.	.	.	.	.	16a/JJ)	.	.	.	.	.	.	.	.	.
8BB/|	6	.	8BB/	.	.	16dd\LL|	.	.	.	.	.	.	.	.	.
.	.	.	.	.	.	(16b\	.	.	.	.	.	.	.	.	.
8BB/J|	.	.	8BB/J	.	.	16a\	.	.	.	.	.	.	.	.	.
.	.	.	.	.	.	16g#\JJ)	.	.	.	.	.	.	.	.	.
=2	=2	=2	=2	=2	=2	=2	=2	=2	=2	=2	=2	=2	=2	=2	=2
8C#/L	6	.	8C#/L	.	2.ryy	(32a\LLL	.	2.ryy	2.ryy	.	.	2.ryy	2.ryy	2.ryy	2.ryy
.	.	.	.	.	.	32cc#\JJ)	.	.	.	.	.	.	.	.	.
.	.	.	.	.	.	[8.ee\J	.	.	.	.	.	.	.	.	.
16AA/L	.	.	16AA/L	.	.	.	.	.	.	.	.	.	.	.	.
16BB/JJ	.	.	16BB/JJ	.	.	.	.	.	.	.	.	.	.	.	.
!	!	!	!LO:TX:t=P:problem=mixed beam	!	!	!	!	!	!	!	!	!	!	!	!
8C#\L	6	.	8C#/L	.	.	16ee\LL]	.	.	.	.	.	.	.	.	.
.	.	.	.	.	.	(16cc#\	.	.	.	.	.	.	.	.	.
8F#\J	.	.	8F#\J	.	.	16b\	.	.	.	.	.	.	.	.	.
.	.	.	.	.	.	16a\JJ)	.	.	.	.	.	.	.	.	.
8BB\L	7	.	8BB\L	.	.	16dd\LL|	.	.	.	.	.	.	.	.	.
.	.	.	.	.	.	(16b\	.	.	.	.	.	.	.	.	.
8E\J	7	.	8E\J	.	.	16a\	.	.	.	.	.	.	.	.	.
.	.	.	.	.	.	16g#\JJ)	.	.	.	.	.	.	.	.	.
!LO:LB:g=original	!	!	!	!	!	!	!	!	!	!	!	!	!	!	!
=3	=3	=3	=3	=3	=3	=3	=3	=3	=3	=3	=3	=3	=3	=3	=3
.	.	.	.	.	.	8qqb/	.	.	.	.	.	.	.	.	.
8C#/L	6	.	8C#/L	.	2.ryy	8a/L	.	2.ryy	2.ryy	.	.	2.ryy	2.ryy	2.ryy	2.ryy
.	6	.	.	.	.	8qqg#/	.	.	.	.	.	.	.	.	.
8AA/	.	.	8AA/	.	.	8f#/J	.	.	.	.	.	.	.	.	.
.	.	.	.	.	.	8qqe/	.	.	.	.	.	.	.	.	.
8BB/	7	.	8BB/	.	.	2d/	.	.	.	.	.	.	.	.	.
8BB/	.	.	8BB/	.	.	.	.	.	.	.	.	.	.	.	.
8EE/	7	.	8EE/	.	.	.	.	.	.	.	.	.	.	.	.
8EE/J	.	.	8EE/J	.	.	.	.	.	.	.	.	.	.	.	.
=4	=4	=4	=4	=4	=4	=4	=4	=4	=4	=4	=4	=4	=4	=4	=4
2AA/	.	.	2AA/	.	2.ryy	(16c#/LL	.	2.ryy	2.ryy	.	.	2.ryy	2.ryy	2.ryy	2.ryy
.	.	.	.	.	.	16A/)	.	.	.	.	.	.	.	.	.
.	.	.	.	.	.	(16e/	.	.	.	.	.	.	.	.	.
.	.	.	.	.	.	16c#/JJ)	.	.	.	.	.	.	.	.	.
.	.	.	.	.	.	(16a/LL	.	.	.	.	.	.	.	.	.
.	.	.	.	.	.	16e/)	.	.	.	.	.	.	.	.	.
.	.	.	.	.	.	(16cc#/	.	.	.	.	.	.	.	.	.
.	.	.	.	.	.	16a/JJ)	.	.	.	.	.	.	.	.	.
4r	.	.	4r	.	.	(16ee\LL	.	.	.	.	.	.	.	.	.
.	.	.	.	.	.	16cc#\)	.	.	.	.	.	.	.	.	.
.	.	.	.	.	.	(16aa\	.	.	.	.	.	.	.	.	.
.	.	.	.	.	.	16ee\JJ)	.	.	.	.	.	.	.	.	.
!	!	!	!	!	!	!LO:LB:g=original	!	!	!	!	!	!	!	!	!
=5	=5	=5	=5	=5	=5	=5	=5	=5	=5	=5	=5	=5	=5	=5	=5
*	*	*	*	*	*	*^	*	*	*	*	*	*	*	*	*
4A\	.	.	4A\	.	2.ryy	8ccc#/L	8a\L	.	2.ryy	2.ryy	0.r	.	2.ryy	2.ryy	2.ryy	2.ryy
.	.	.	.	.	.	8ee/J	8cc#\J	.	.	.	.	.	.	.	.	.
4r	.	.	4r	.	.	(8ee/L	8cc#\L	.	.	.	.	.	.	.	.	.
.	.	.	.	.	.	8ff#/)	8dd\	.	.	.	.	.	.	.	.	.
4A#X\	6 5	.	4A#X\	.	.	(8ff#/	8dd\	.	.	.	.	.	.	.	.	.
.	.	.	.	.	.	8ee/J)	8cc#\J	.	.	.	.	.	.	.	.	.
=6	=6	=6	=6	=6	=6	=6	=6	=6	=6	=6	=6	=6	=6	=6	=6	=6
4B\	.	.	4B\	.	2.ryy	8rcc	8r	.	2.ryy	2.ryy	.	.	2.ryy	2.ryy	2.ryy	2.ryy
.	.	.	.	.	.	8dd/L|	8b\L	.	.	.	.	.	.	.	.	.
4r	.	.	4r	.	.	(8dd/	8b\	.	.	.	.	.	.	.	.	.
.	.	.	.	.	.	8ee/)	8cc#\	.	.	.	.	.	.	.	.	.
4G#\	6 5	.	4G#\	.	.	(8ee/	8cc#\	.	.	.	.	.	.	.	.	.
.	.	.	.	.	.	8dd/J)	8b\J	.	.	.	.	.	.	.	.	.
=7	=7	=7	=7	=7	=7	=7	=7	=7	=7	=7	=7	=7	=7	=7	=7	=7
4An\	.	.	4An\	.	2.ryy	8rcc	8r	.	2.ryy	2.ryy	.	.	2.ryy	2.ryy	2.ryy	2.ryy
.	.	.	.	.	.	8cc#/L|	8a\L	.	.	.	.	.	.	.	.	.
*2\right	*	*	*2\right	*	*	*	*	*	*	*	*	*	*	*	*	*
[2A\	.	.	2A\	.	.	(8cc#/	8a\	.	.	.	.	.	.	.	.	.
.	.	.	.	.	.	8dd/)	8b\	.	.	.	.	.	.	.	.	.
.	.	.	.	.	.	(8dd/	8b\	.	.	.	.	.	.	.	.	.
.	.	.	.	.	.	8cc#/J)	8a\J	.	.	.	.	.	.	.	.	.
=8	=8	=8	=8	=8	=8	=8	=8	=8	=8	=8	=8	=8	=8	=8	=8	=8
.	.	.	.	.	.	8qqcc#/	8qqa\	.	.	.	.	.	.	.	.	.
*	*	*	*	*	*	*2\right	*	*	*	*	*	*	*	*	*	*
8A\L]	5 2	.	8A\L	.	2.ryy	2.b/	2.e\	.	2.ryy	2.ryy	.	.	2.ryy	2.ryy	2.ryy	2.ryy
16G#\L	.	.	16G#\L	.	.	.	.	.	.	.	.	.	.	.	.	.
16F#\JJ	.	.	16F#\JJ	.	.	.	.	.	.	.	.	.	.	.	.	.
8E\L|	.	.	8E/L	.	.	.	.	.	.	.	.	.	.	.	.	.
8D\|	.	.	8D/	.	.	.	.	.	.	.	.	.	.	.	.	.
8C#\|	.	.	8C#/	.	.	.	.	.	.	.	.	.	.	.	.	.
8BB\J|	.	.	8BB/J	.	.	.	.	.	.	.	.	.	.	.	.	.
*	*	*	*	*	*	*v	*v	*	*	*	*	*	*	*	*	*
!	!	!	!LO:LB:g=original	!	!	!	!	!	!	!	!	!	!	!	!
=9	=9	=9	=9	=9	=9	=9	=9	=9	=9	=9	=9	=9	=9	=9	=9
!LO:TX:t=P:problem=mixed beam	!	!	!LO:TX:t=P:problem=mixed beam	!	!	!	!	!	!	!	!	!	!	!	!
8AA/L	.	.	8AA/L	.	2.ryy	(16cc#\LL	.	2.ryy	2.ryy	0.r	.	2.ryy	2.ryy	2.ryy	2.ryy
.	.	.	.	.	.	16a\J)	.	.	.	.	.	.	.	.	.
16A\L	.	.	16A\L	.	.	[8ee\J	.	.	.	.	.	.	.	.	.
16B\JJ	.	.	16B\JJ	.	.	.	.	.	.	.	.	.	.	.	.
8c#\L	6	.	8c#\L	.	.	(32ee\KLL]	.	.	.	.	.	.	.	.	.
.	.	.	.	.	.	16.cc#\JJ)	.	.	.	.	.	.	.	.	.
8F#\J	.	.	8F#\J	.	.	(32a/KLL	.	.	.	.	.	.	.	.	.
.	.	.	.	.	.	16.f#/JJ)	.	.	.	.	.	.	.	.	.
8B\L	7	.	8B\L	.	.	(32dd\KLL	.	.	.	.	.	.	.	.	.
.	.	.	.	.	.	16.b\JJ)	.	.	.	.	.	.	.	.	.
8E\J	7	.	8E\J	.	.	(32g#/KLL	.	.	.	.	.	.	.	.	.
.	.	.	.	.	.	16.e/JJ)	.	.	.	.	.	.	.	.	.
=10	=10	=10	=10	=10	=10	=10	=10	=10	=10	=10	=10	=10	=10	=10	=10
!LO:TX:a:t=vi	!	!	!	!	!	!	!	!	!	!	!	!	!	!	!
4A\	.	.	4A\	.	2.ryy	16cc#\LL	p	2.ryy	2.ryy	.	.	2.ryy	2.ryy	2.ryy	2.ryy
.	.	.	.	.	.	16a\J	.	.	.	.	.	.	.	.	.
.	.	.	.	.	.	(8dd#X\J	.	.	.	.	.	.	.	.	.
8c#\L	.	.	8c#\L	.	.	(32ee\KLL)	.	.	.	.	.	.	.	.	.
.	.	.	.	.	.	16.cc#\JJ)	.	.	.	.	.	.	.	.	.
8F#\J	.	.	8F#\J	.	.	(32a/KLL	.	.	.	.	.	.	.	.	.
.	.	.	.	.	.	16.f#/JJ)	.	.	.	.	.	.	.	.	.
8B\L	.	.	8B\L	.	.	(32ddn\KLL	.	.	.	.	.	.	.	.	.
.	.	.	.	.	.	16.b\JJ)	.	.	.	.	.	.	.	.	.
8E\J	.	.	8E\J	.	.	(32g#/KLL	.	.	.	.	.	.	.	.	.
.	.	.	.	.	.	16.e/JJ)	.	.	.	.	.	.	.	.	.
!	!	!	!	!	!	!LO:LB:g=original	!	!	!	!	!	!	!	!	!
=11	=11	=11	=11	=11	=11	=11	=11	=11	=11	=11	=11	=11	=11	=11	=11
!LO:TX:a:t=de	!	!	!	!	!	!LO:TUP:a:problem=klamra łukowa	!	!	!	!	!	!	!	!	!
8A\L	.	.	8A\L	.	2.ryy	24cc#\LL	f	2.ryy	2.ryy	.	.	2.ryy	2.ryy	2.ryy	2.ryy
.	.	.	.	.	.	24b\	.	.	.	.	.	.	.	.	.
.	.	.	.	.	.	24a\JJ	.	.	.	.	.	.	.	.	.
!	!	!	!	!	!	!LO:TUP:a:problem=klamra łukowa	!	!	!	!	!	!	!	!	!
8d\J	.	.	8d\J	.	.	24ff#\LL	.	.	.	.	.	.	.	.	.
.	.	.	.	.	.	24ee\	.	.	.	.	.	.	.	.	.
.	.	.	.	.	.	24dd\JJ	.	.	.	.	.	.	.	.	.
*	*below	*	*	*	*	*	*	*	*	*	*	*	*	*	*
!	!	!	!LO:TX:t=P:problem=mixed beam	!	!	!	!	!	!	!	!	!	!	!	!
8e\L	6 4	.	8e\L	.	.	4cc#t\	.	.	.	.	.	.	.	.	.
8e\	.	.	8e\	.	.	.	.	.	.	.	.	.	.	.	.
*	*above	*	*	*	*	*	*	*	*	*	*	*	*	*	*
8E\	5 3	.	8E/	.	.	8.dd\L	.	.	.	.	.	.	.	.	.
8E\J	.	.	8E/J	.	.	.	.	.	.	.	.	.	.	.	.
.	.	.	.	.	.	16b\Jk	.	.	.	.	.	.	.	.	.
=12	=12	=12	=12	=12	=12	=12	=12	=12	=12	=12	=12	=12	=12	=12	=12
*	*	*	*	*	*	*^	*	*	*	*	*	*	*	*	*
2A\	.	.	2A\	.	2.ryy	16ryy	16a\LL	.	2.ryy	2.ryy	.	.	2.ryy	2.ryy	2.ryy	2.ryy
.	.	.	.	.	.	16ee/KL	16cc#\	.	.	.	.	.	.	.	.	.
!	!	!	!	!	!	!LO:N:vis=8	!	!	!	!	!	!	!	!	!	!
.	.	.	.	.	.	16ee/J	16dd\	.	.	.	.	.	.	.	.	.
!	!	!	!	!	!	!LO:N:vis=8	!	!	!	!	!	!	!	!	!	!
.	.	.	.	.	.	16r	16b\JJ	.	.	.	.	.	.	.	.	.
.	.	.	.	.	.	8ee/L	8cc#\L	.	.	.	.	.	.	.	.	.
.	.	.	.	.	.	8aa/	8cc#\	.	.	.	.	.	.	.	.	.
4d\	6 5	.	4d\	.	.	8aa/	8b\	.	.	.	.	.	.	.	.	.
.	4 2	.	.	.	.	8gg#/J	8a\J	.	.	.	.	.	.	.	.	.
=13	=13	=13	=13	=13	=13	=13	=13	=13	=13	=13	=13	=13	=13	=13	=13	=13
8c#\L	6	.	8c#\L	.	2.ryy	16aa/LL	16a\LL	.	2.ryy	2.ryy	1.r	.	2.ryy	2.ryy	2.ryy	2.ryy
.	.	.	.	.	.	16ee/J	16cc#\	.	.	.	.	.	.	.	.	.
8G#\	6 5	.	8G#\	.	.	8ee/J	16dd\	.	.	.	.	.	.	.	.	.
.	.	.	.	.	.	.	16b\JJ	.	.	.	.	.	.	.	.	.
8A\	.	.	8A\	.	.	8ee/L	8cc#\L	.	.	.	.	.	.	.	.	.
8A\	.	.	8A\	.	.	8aa/	8cc#\	.	.	.	.	.	.	.	.	.
8D\	6 5	.	8D\	.	.	8aa/	8b\	.	.	.	.	.	.	.	.	.
8D\J	4 2	.	8D\J	.	.	8gg#/J	8b\J	.	.	.	.	.	.	.	.	.
!LO:LB:g=original	!	!	!	!	!	!	!	!	!	!	!	!	!	!	!	!
=14	=14	=14	=14	=14	=14	=14	=14	=14	=14	=14	=14	=14	=14	=14	=14	=14
!	!	!	!LO:TX:t=P:problem=mixed beam	!	!	!	!	!	!	!	!	!	!	!	!	!
8C#/L	6	.	8C#/L	.	2.ryy	4aa/	4a\	.	2.ryy	2.ryy	.	.	2.ryy	2.ryy	2.ryy	2.ryy
8F#/J	.	.	8F#\J	.	.	.	.	.	.	.	.	.	.	.	.	.
8D/L	.	.	8D/L	.	.	8ff#L 8a 8d/	4ryy	.	.	.	.	.	.	.	.	.
.	.	.	.	.	.	8qqee/	.	.	.	.	.	.	.	.	.	.
8BB/J	.	.	8BB/J	.	.	8dd/J	.	.	.	.	.	.	.	.	.	.
.	.	.	.	.	.	8qqcc#/	.	.	.	.	.	.	.	.	.	.
!LO:TX:t=P:problem=mixed beam	!	!	!LO:TX:t=P:problem=mixed beam	!	!	!	!	!	!	!	!	!	!	!	!	!
8E\L	4	.	8E\L	.	.	4bT/	8.e\L	.	.	.	.	.	.	.	.	.
8EE/J	3	.	8EE/J	.	.	.	.	.	.	.	.	.	.	.	.	.
.	.	.	.	.	.	.	16d\Jk	.	.	.	.	.	.	.	.	.
*	*	*	*	*	*	*v	*v	*	*	*	*	*	*	*	*	*
=15	=15	=15	=15	=15	=15	=15	=15	=15	=15	=15	=15	=15	=15	=15	=15
!LO:TX:t=P:problem=mixed beam	!	!	!LO:TX:t=P:problem=mixed beam	!	!	!	!	!	!	!	!	!	!	!	!
16AA/LL	.	.	16AA/LL	.	2.ryy	2a 2e 2c#/	.	2.ryy	2.ryy	2.r	.	2.ryy	2.ryy	2.ryy	2.ryy
16A\	.	.	16A\	.	.	.	.	.	.	.	.	.	.	.	.
16G#\	.	.	16G#\	.	.	.	.	.	.	.	.	.	.	.	.
16F#\JJ	.	.	16F#\JJ	.	.	.	.	.	.	.	.	.	.	.	.
8E\L|	.	.	8E\L|	.	.	.	.	.	.	.	.	.	.	.	.
8D\|	.	.	8D\|	.	.	.	.	.	.	.	.	.	.	.	.
8C#\|	.	.	8C#\|	.	.	4r	.	.	.	.	.	.	.	.	.
8BB\J|	.	.	8BB\J|	.	.	.	.	.	.	.	.	.	.	.	.
=16	=16	=16	=16	=16	=16	=16	=16	=16	=16	=16	=16	=16	=16	=16	=16
!	!	!LO:DY:t=pianiſs&colon;	!	!	!	!	!	!	!	!	!	!	!	!	!
8AA/L	.	pp	8AA/L	.	2.ryy	1.r	.	2.ryy	2.ryy	[4a\	Be-	2.ryy	2.ryy	2.ryy	2.ryy
!	!	!	!	!LO:DY:t=pianis	!	!	!	!	!	!	!	!	!	!	!
8A\	.	.	8A\	pp	.	.	.	.	.	.	.	.	.	.	.
8c#\	6	.	8c#\	.	.	.	.	.	.	16a\LL]	.	.	.	.	.
.	.	.	.	.	.	.	.	.	.	(16cc#\	.	.	.	.	.
8c#\	.	.	8c#\	.	.	.	.	.	.	16b\	.	.	.	.	.
.	.	.	.	.	.	.	.	.	.	16a\JJ)	.	.	.	.	.
8B\	7	.	8B\	.	.	.	.	.	.	(16dd\LL	.	.	.	.	.
.	.	.	.	.	.	.	.	.	.	16b\	.	.	.	.	.
8B\J	6	.	8B\J	.	.	.	.	.	.	16a\	.	.	.	.	.
.	.	.	.	.	.	.	.	.	.	16g#\JJ)	.	.	.	.	.
=17	=17	=17	=17	=17	=17	=17	=17	=17	=17	=17	=17	=17	=17	=17	=17
.	.	.	.	.	.	.	.	.	.	8qqg#/	.	.	.	.	.
!LO:TX:t=P:problem=mixed beam	!	!	!LO:TX:t=P:problem=mixed beam	!	!	!	!	!	!	!	!	!	!	!	!
8A\L	.	.	8A\L	.	2.ryy	.	.	2.ryy	2.ryy	[4a\	.	2.ryy	2.ryy	2.ryy	2.ryy
16AA/L	.	.	16AA/L	.	.	.	.	.	.	.	.	.	.	.	.
16BB/JJ	.	.	16BB/JJ	.	.	.	.	.	.	.	.	.	.	.	.
8C#\L	6	.	8C#\L	.	.	.	.	.	.	16a\LL]	.	.	.	.	.
.	.	.	.	.	.	.	.	.	.	16cc#\	.	.	.	.	.
8F#\J	.	.	8F#\J	.	.	.	.	.	.	16b\	.	.	.	.	.
.	.	.	.	.	.	.	.	.	.	16a\JJ	.	.	.	.	.
!	!	!	!LO:TX:a:t=b	!	!	!	!	!	!	!	!	!	!	!	!
8BB\L	7	.	8BB\L	.	.	.	.	.	.	16dd\LL	.	.	.	.	.
.	.	.	.	.	.	.	.	.	.	(16b\	.	.	.	.	.
8E\J	7	.	8E\J	.	.	.	.	.	.	16a\	.	.	.	.	.
.	.	.	.	.	.	.	.	.	.	16g#\JJ)	.	.	.	.	.
=18	=18	=18	=18	=18	=18	=18	=18	=18	=18	=18	=18	=18	=18	=18	=18
!	!	!	!LO:TX:a:t=c	!	!	!	!	!	!	!	!	!	!	!	!
!	!	!	!LO:TX:t=P:problem=mixed beam	!	!	!	!	!	!	!	!	!	!	!	!
8C#\L	6	.	8C#/L	.	2.ryy	2.r	.	2.ryy	2.ryy	(16a\LL	.	2.ryy	2.ryy	2.ryy	2.ryy
.	.	.	.	.	.	.	.	.	.	16cc#\JJ)	.	.	.	.	.
!	!	!	!LO:TX:a:t=a	!	!	!	!	!	!	!	!	!	!	!	!
8A\J	6	.	8A\J	.	.	.	.	.	.	(16a\LL	-ne-	.	.	.	.
.	.	.	.	.	.	.	.	.	.	16f#\JJ)	.	.	.	.	.
.	.	.	.	.	.	.	.	.	.	8qqe/	.	.	.	.	.
*	*	*	*	*	*	*	*	*	*	*2\right	*	*	*	*	*
8B\L	7	.	8B\L	.	.	.	.	.	.	2d\	-dic-	.	.	.	.
8B\	.	.	8B\	.	.	.	.	.	.	.	.	.	.	.	.
8E\	7	.	8E\	.	.	.	.	.	.	.	.	.	.	.	.
8E\J	.	.	8E\J	.	.	.	.	.	.	.	.	.	.	.	.
!	!	!	!LO:LB:g=original	!	!	!	!	!	!	!	!	!	!	!	!
=19	=19	=19	=19	=19	=19	=19	=19	=19	=19	=19	=19	=19	=19	=19	=19
.	.	.	.	.	.	.	.	.	.	8qqd/	.	.	.	.	.
4A\	.	.	4A\	.	2.ryy	16r	.	2.ryy	2.ryy	2c#\	-tus	2.ryy	2.ryy	2.ryy	2.ryy
.	.	.	.	.	.	16A/LL	.	.	.	.	.	.	.	.	.
.	.	.	.	.	.	(16e/	.	.	.	.	.	.	.	.	.
.	.	.	.	.	.	16c#/JJ)	.	.	.	.	.	.	.	.	.
4AA/	.	.	4AA/	.	.	(16a\LL	.	.	.	.	.	.	.	.	.
.	.	.	.	.	.	16e\)	.	.	.	.	.	.	.	.	.
.	.	.	.	.	.	(16cc#\	.	.	.	.	.	.	.	.	.
.	.	.	.	.	.	16a\JJ)	.	.	.	.	.	.	.	.	.
4r	.	.	4r	.	.	(16ee\LL	.	.	.	4r	.	.	.	.	.
.	.	.	.	.	.	16cc#\)	.	.	.	.	.	.	.	.	.
.	.	.	.	.	.	(16aa\	.	.	.	.	.	.	.	.	.
.	.	.	.	.	.	16ee\JJ)	.	.	.	.	.	.	.	.	.
!	!	!	!	!	!	!LO:LB:g=original	!	!	!	!	!	!	!	!	!
=20	=20	=20	=20	=20	=20	=20	=20	=20	=20	=20	=20	=20	=20	=20	=20
*	*	*	*	*	*	*^	*	*	*	*	*	*	*	*	*
4A\	.	.	4A\	.	2.ryy	8ccc#/L	8a\L	p	2.ryy	2.ryy	4cc#\	qui	2.ryy	2.ryy	2.ryy	2.ryy
.	.	.	.	.	.	8ee/J	8cc#\J	.	.	.	.	.	.	.	.	.
4r	.	.	4r	.	.	(8ee/L	8cc#\L	.	.	.	4r	.	.	.	.	.
.	.	.	.	.	.	8ff#/)	8dd\	.	.	.	.	.	.	.	.	.
4A#X\	6 5	.	4A#X\	.	.	(8ff#/	8dd\	.	.	.	4r	.	.	.	.	.
.	.	.	.	.	.	8ee/J)	8cc#\J	.	.	.	.	.	.	.	.	.
!	!	!	!	!	!	!	!	!	!	!	!LO:LB:g=original	!	!	!	!	!
=21	=21	=21	=21	=21	=21	=21	=21	=21	=21	=21	=21	=21	=21	=21	=21	=21
4B\	.	.	4B\	.	2.ryy	8r	8r	.	2.ryy	2.ryy	4b\	qui	2.ryy	2.ryy	2.ryy	2.ryy
.	.	.	.	.	.	8dd/|	8b\	.	.	.	.	.	.	.	.	.
4r	.	.	4r	.	.	(8dd/L	8b\L	.	.	.	4r	.	.	.	.	.
.	.	.	.	.	.	8ee/)	8cc#\	.	.	.	.	.	.	.	.	.
4G#\	6 5	.	4G#\	.	.	(8ee/	8cc#\	.	.	.	4e\	.	.	.	.	.
.	.	.	.	.	.	8dd/J)	8b\J	.	.	.	.	.	.	.	.	.
*	*	*	*	*	*	*v	*v	*	*	*	*	*	*	*	*	*
=22	=22	=22	=22	=22	=22	=22	=22	=22	=22	=22	=22	=22	=22	=22	=22
!	!	!	!LO:TX:t=P:problem=mixed beam	!	!	!	!	!	!	!	!	!	!	!	!
8A\L	.	.	8A\L	.	2.ryy	(4cc#\	.	2.ryy	2.ryy	4a\	ve-	2.ryy	2.ryy	2.ryy	2.ryy
8A\	.	.	8A\	.	.	.	.	.	.	.	.	.	.	.	.
8D\	8 6	.	8D/	.	.	4dd\)	.	.	.	4b\	-nit	.	.	.	.
8D\	.	.	8D/	.	.	.	.	.	.	.	.	.	.	.	.
8D#X\	7 5	.	8D#X/	.	.	4cc#\|	.	.	.	4a\	in	.	.	.	.
8D#\J	.	.	8D#/J	.	.	.	.	.	.	.	.	.	.	.	.
!LO:LB:g=original	!	!	!	!	!	!	!	!	!	!	!	!	!	!	!
=23	=23	=23	=23	=23	=23	=23	=23	=23	=23	=23	=23	=23	=23	=23	=23
4.E\	6 4	.	4.E\	.	2.ryy	8cc#\L	.	2.ryy	2.ryy	8a\	no-	2.ryy	2.ryy	2.ryy	2.ryy
.	.	.	.	.	.	8a\J	.	.	.	8f#\	-mi-	.	.	.	.
.	.	.	.	.	.	8qqa/	.	.	.	8qqf#/	.	.	.	.	.
.	5 3	.	.	.	.	2b\	.	.	.	2g#\	-ne	.	.	.	.
8F#\L|	.	.	8F#\L	.	.	.	.	.	.	.	.	.	.	.	.
8G#\|	.	.	8G#\	.	.	.	.	.	.	.	.	.	.	.	.
8F#\J|	.	.	8F#\J	.	.	.	.	.	.	.	.	.	.	.	.
=24	=24	=24	=24	=24	=24	=24	=24	=24	=24	=24	=24	=24	=24	=24	=24
8E\L	.	.	8E\L	.	2.ryy	4r	.	2.ryy	2.ryy	16g#\LL	Do-	2.ryy	2.ryy	2.ryy	2.ryy
.	.	.	.	.	.	.	.	.	.	16e\J	.	.	.	.	.
16E\L	.	.	16E\L	.	.	.	.	.	.	[8b\J	.	.	.	.	.
16F#\JJ	.	.	16F#\JJ	.	.	.	.	.	.	.	.	.	.	.	.
8G#\L	6	.	8G#\L	.	.	(4.ee\	.	.	.	(32b\KLL]	.	.	.	.	.
.	.	.	.	.	.	.	.	.	.	16.g#\JJ)	.	.	.	.	.
8c#\J	.	.	8c#\J	.	.	.	.	.	.	(32e\KLL	.	.	.	.	.
.	.	.	.	.	.	.	.	.	.	16.c#\JJ)	.	.	.	.	.
8F#\L	7	.	8F#\L	.	.	.	.	.	.	(32a\KLL	.	.	.	.	.
.	.	.	.	.	.	.	.	.	.	16.f#\JJ)	.	.	.	.	.
8B\J	7 #	.	8B\J	.	.	8dd#X\)	.	.	.	(32d#X\KLL	.	.	.	.	.
.	.	.	.	.	.	.	.	.	.	16.B\JJ)	.	.	.	.	.
=25	=25	=25	=25	=25	=25	=25	=25	=25	=25	=25	=25	=25	=25	=25	=25
4E\	.	.	4E\	.	2.ryy	8bb\L	.	2.ryy	2.ryy	16g#\LL	.	2.ryy	2.ryy	2.ryy	2.ryy
.	.	.	.	.	.	.	.	.	.	16e\J	.	.	.	.	.
.	.	.	.	.	.	8ccc#\J	.	.	.	8a#X\J	.	.	.	.	.
!	!	!	!LO:TX:t=P:problem=mixed beam	!	!	!	!	!	!	!	!	!	!	!	!
8G#\L	6	.	8G#\L	.	.	(4.ee\	.	.	.	(32b\KLL	.	.	.	.	.
.	.	.	.	.	.	.	.	.	.	16.g#\JJ)	.	.	.	.	.
8C#\J	.	.	8C#/J	.	.	.	.	.	.	(32e\KLL	.	.	.	.	.
.	.	.	.	.	.	.	.	.	.	16.c#\JJ)	.	.	.	.	.
!	!	!	!LO:TX:t=P:problem=mixed beam	!	!	!	!	!	!	!	!	!	!	!	!
8F#\L	7	.	8F#\L	.	.	.	.	.	.	(32an\KLL	.	.	.	.	.
.	.	.	.	.	.	.	.	.	.	16.f#\JJ)	.	.	.	.	.
8BB\J	7 #	.	8BB/J	.	.	8dd#X\)	.	.	.	(32d#X\KLL	.	.	.	.	.
.	.	.	.	.	.	.	.	.	.	16.B\JJ)	.	.	.	.	.
!	!	!	!	!	!	!	!	!	!	!LO:LB:g=original	!	!	!	!	!
=26	=26	=26	=26	=26	=26	=26	=26	=26	=26	=26	=26	=26	=26	=26	=26
!	!	!	!LO:TX:t=P:problem=mixed beam	!	!	!LO:TUP:a	!	!	!	!LO:TUP:a:problem=klamra łukowa	!	!	!	!	!
8E\L	.	.	8E\L	.	2.ryy	24ee\LL	.	2.ryy	2.ryy	24g#\LL	.	2.ryy	2.ryy	2.ryy	2.ryy
.	.	.	.	.	.	24ff#\	.	.	.	24f#\	.	.	.	.	.
.	.	.	.	.	.	24gg#\JJ	.	.	.	24e\JJ	.	.	.	.	.
!	!	!	!	!	!	!LO:TUP:a	!	!	!	!LO:TUP:a:problem=klamra łukowa	!	!	!	!	!
8A\J	6	.	8A\	.	.	24aa\LL	.	.	.	24cc#\LL	.	.	.	.	.
.	.	.	.	.	.	24gg#\	.	.	.	24b\	.	.	.	.	.
.	.	.	.	.	.	24ff#\JJ	.	.	.	24a\JJ	.	.	.	.	.
.	.	.	.	.	.	8qqee/	.	.	.	8qqg#/	.	.	.	.	.
!LO:TX:t=P:problem=mixed beam	!	!	!	!	!	!	!	!	!	!	!	!	!	!	!
8B\L	#	.	8B\	.	.	2dd#Xt\	.	.	.	4.f#T\	.	.	.	.	.
8B\	.	.	8B\	.	.	.	.	.	.	.	.	.	.	.	.
8BB/	7	.	8BB/	.	.	.	.	.	.	.	.	.	.	.	.
8BB/J	.	.	8BB/J	.	.	.	.	.	.	8f#\	-mi-	.	.	.	.
!	!	!	!	!	!	!LO:PB:g=original	!	!	!	!	!	!	!	!	!
=27	=27	=27	=27	=27	=27	=27	=27	=27	=27	=27	=27	=27	=27	=27	=27
8r	.	.	8r	.	2.ryy	8r	.	2.ryy	2.ryy	2.e\	-ne	2.ryy	2.ryy	2.ryy	2.ryy
8E\L|	.	.	8E\L	.	.	(8gg#\L	.	.	.	.	.	.	.	.	.
8D#X\|	.	.	8D#X\	.	.	8ff#\	.	.	.	.	.	.	.	.	.
8C#\|	.	.	8C#\	.	.	8ee\	.	.	.	.	.	.	.	.	.
8BB\|	.	.	8BB\	.	.	8dd#X\	.	.	.	.	.	.	.	.	.
8AA\J|	.	.	8AA\J	.	.	8cc#\J)	.	.	.	.	.	.	.	.	.
=28	=28	=28	=28	=28	=28	=28	=28	=28	=28	=28	=28	=28	=28	=28	=28
4GG#/	6	.	4GG#/	.	2.ryy	4b/	.	2.ryy	2.ryy	8r	.	2.ryy	2.ryy	2.ryy	2.ryy
.	.	.	.	.	.	.	.	.	.	8ee\	qui	.	.	.	.
4r	.	.	4r	.	.	4r	.	.	.	8dd#X\L	ve-	.	.	.	.
.	.	.	.	.	.	.	.	.	.	8cc#\J	.	.	.	.	.
4D#X/	6 5	.	4D#X/	.	.	4ff#\	.	.	.	8b\	-nit	.	.	.	.
.	.	.	.	.	.	.	.	.	.	8a\	in	.	.	.	.
=29	=29	=29	=29	=29	=29	=29	=29	=29	=29	=29	=29	=29	=29	=29	=29
!LO:TX:t=P:problem=mixed beam	!	!	!LO:TX:t=P:problem=mixed beam	!	!	!	!	!	!	!LO:TUP:a:problem=klamra łukowa	!	!	!	!	!
8E\L	.	.	8E\L	.	2.ryy	4ee\	.	2.ryy	2.ryy	24g#\LL	no-	2.ryy	2.ryy	2.ryy	2.ryy
.	.	.	.	.	.	.	.	.	.	24f#\	.	.	.	.	.
.	.	.	.	.	.	.	.	.	.	24e\JJ	.	.	.	.	.
8AA/J	.	.	8AA/J	.	.	.	.	.	.	16cc#\	-mi-	.	.	.	.
.	.	.	.	.	.	.	.	.	.	16a\	-ne	.	.	.	.
8BB/L	6 4	.	8BB/L	.	.	4eee\	.	.	.	4g#\	Do-	.	.	.	.
8BB/	.	.	8BB/	.	.	.	.	.	.	.	.	.	.	.	.
8BB/	5 #	.	8BB/	.	.	4ddd#Xt\	.	.	.	8.f#T\	.	.	.	.	.
8BB/J	.	.	8BB/J	.	.	.	.	.	.	.	.	.	.	.	.
.	.	.	.	.	.	.	.	.	.	16e\	-mi-	.	.	.	.
!	!	!	!LO:LB:g=original	!	!	!	!	!	!	!	!	!	!	!	!
=30	=30	=30	=30	=30	=30	=30	=30	=30	=30	=30	=30	=30	=30	=30	=30
8E\L	.	mf	8E\L	.	2.ryy	[4ee\	.	2.ryy	2.ryy	2e\	-ni.	2.ryy	2.ryy	2.ryy	2.ryy
8E\	.	.	8E\	.	.	.	.	.	.	.	.	.	.	.	.
8G#\	6	.	8G#\	.	.	16ee\LL]	.	.	.	.	.	.	.	.	.
.	.	.	.	.	.	(16gg#\	.	.	.	.	.	.	.	.	.
8G#\	.	.	8G#\	.	.	16ff#\	.	.	.	.	.	.	.	.	.
.	.	.	.	.	.	16ee\JJ)	.	.	.	.	.	.	.	.	.
8F#\	6\	.	8F#\	.	.	16aa\LL|	.	.	.	4r	.	.	.	.	.
.	.	.	.	.	.	(16ff#\	.	.	.	.	.	.	.	.	.
8F#\J	.	.	8F#\J	.	.	16ee\	.	.	.	.	.	.	.	.	.
.	.	.	.	.	.	16dd#X\JJ)	.	.	.	.	.	.	.	.	.
!	!	!	!	!	!	!	!	!	!	!LO:LB:g=original	!	!	!	!	!
=31	=31	=31	=31	=31	=31	=31	=31	=31	=31	=31	=31	=31	=31	=31	=31
!	!	!	!	!	!	!	!	!	!	!LO:TX:a:t=8.	!	!	!	!	!
8G#\L	6	.	8G#\L	.	2.ryy	(32ee\LLL	.	2.ryy	2.ryy	0.r	.	2.ryy	2.ryy	2.ryy	2.ryy
.	.	.	.	.	.	32gg#\JJ	.	.	.	.	.	.	.	.	.
.	.	.	.	.	.	[8.bb\J)	.	.	.	.	.	.	.	.	.
16E\L	.	.	16E\L	.	.	.	.	.	.	.	.	.	.	.	.
16F#\JJ	.	.	16F#\JJ	.	.	.	.	.	.	.	.	.	.	.	.
8G#\L	6	.	8G#\L	.	.	16bb\LL]	.	.	.	.	.	.	.	.	.
.	.	.	.	.	.	(16gg#\	.	.	.	.	.	.	.	.	.
8c#\J	.	.	8c#\J	.	.	16ff#\	.	.	.	.	.	.	.	.	.
.	.	.	.	.	.	16ee\JJ)	.	.	.	.	.	.	.	.	.
8F#\L	7	.	8F#\L	.	.	16aa\LL|	.	.	.	.	.	.	.	.	.
.	.	.	.	.	.	(16ff#\	.	.	.	.	.	.	.	.	.
8B\J	7 #	.	8B\J	.	.	16ee\	.	.	.	.	.	.	.	.	.
.	.	.	.	.	.	16dd#X\JJ)	.	.	.	.	.	.	.	.	.
!LO:PB:g=original	!	!	!	!	!	!LO:LB:g=original	!	!	!	!	!	!	!	!	!
=32	=32	=32	=32	=32	=32	=32	=32	=32	=32	=32	=32	=32	=32	=32	=32
.	.	.	.	.	.	8qqff#/	.	.	.	.	.	.	.	.	.
8G#\L	6	.	8G#\L	.	2.ryy	8ee\L	.	2.ryy	2.ryy	.	.	2.ryy	2.ryy	2.ryy	2.ryy
.	.	.	.	.	.	8qqdd#X/	.	.	.	.	.	.	.	.	.
8E\J	6	.	8E\J	.	.	8cc#\J	.	.	.	.	.	.	.	.	.
.	5	.	.	.	.	8qqb/	.	.	.	.	.	.	.	.	.
8F#\L	7 #	.	8F#\L	.	.	2a/	.	.	.	.	.	.	.	.	.
8BB\	.	.	8BB\	.	.	.	.	.	.	.	.	.	.	.	.
8C#\	7	.	8C#\	.	.	.	.	.	.	.	.	.	.	.	.
8D#X\J	6 5	.	8D#X\J	.	.	.	.	.	.	.	.	.	.	.	.
=33	=33	=33	=33	=33	=33	=33	=33	=33	=33	=33	=33	=33	=33	=33	=33
4E\	.	.	4E\	.	2.ryy	(16g#\LL	.	2.ryy	2.ryy	.	.	2.ryy	2.ryy	2.ryy	2.ryy
.	.	.	.	.	.	16b\	.	.	.	.	.	.	.	.	.
.	.	.	.	.	.	16ee\)	.	.	.	.	.	.	.	.	.
.	.	.	.	.	.	16gg#\JJ|	.	.	.	.	.	.	.	.	.
8G#\L	6	.	8G#\L	.	.	(32bb\KLL	.	.	.	.	.	.	.	.	.
.	.	.	.	.	.	16.gg#\JJ)	.	.	.	.	.	.	.	.	.
8c#\J	.	.	8c#\J	.	.	(32ee\KLL	.	.	.	.	.	.	.	.	.
.	.	.	.	.	.	16.cc#\JJ)	.	.	.	.	.	.	.	.	.
8F#\L	7	.	8F#\L	.	.	(32aa\KLL	.	.	.	.	.	.	.	.	.
.	.	.	.	.	.	16.ff#\JJ)	.	.	.	.	.	.	.	.	.
8B\J	7 #	.	8B\J	.	.	(32dd#X\KLL	.	.	.	.	.	.	.	.	.
.	.	.	.	.	.	16.b\JJ)	.	.	.	.	.	.	.	.	.
=34	=34	=34	=34	=34	=34	=34	=34	=34	=34	=34	=34	=34	=34	=34	=34
!	!	!LO:DY:t=pia.	!	!LO:DY:t=pia.	!	!	!	!	!	!	!	!	!	!	!
4E\	.	p	4E\	p	2.ryy	16gg#\LL	.	2.ryy	2.ryy	.	.	2.ryy	2.ryy	2.ryy	2.ryy
.	.	.	.	.	.	16ee\J	.	.	.	.	.	.	.	.	.
.	.	.	.	.	.	(8aa#X\J	p	.	.	.	.	.	.	.	.
!	!	!	!LO:TX:t=P:problem=mixed beam	!	!	!	!	!	!	!	!	!	!	!	!
8G#\L	6	.	8G#\L	.	.	(32bb\KLL)	.	.	.	.	.	.	.	.	.
.	.	.	.	.	.	16.gg#\JJ)	.	.	.	.	.	.	.	.	.
8C#\J	.	.	8C#/J	.	.	(32ee\KLL	.	.	.	.	.	.	.	.	.
.	.	.	.	.	.	16.cc#\JJ)	.	.	.	.	.	.	.	.	.
8F#\L	7	.	8F#\L	.	.	(32aan\KLL	.	.	.	.	.	.	.	.	.
.	.	.	.	.	.	16.ff#\JJ)	.	.	.	.	.	.	.	.	.
8BB\J	7 #	.	8BB\J	.	.	(32dd#X\KLL	.	.	.	.	.	.	.	.	.
.	.	.	.	.	.	16.b\JJ)	.	.	.	.	.	.	.	.	.
=35	=35	=35	=35	=35	=35	=35	=35	=35	=35	=35	=35	=35	=35	=35	=35
!LO:TX:t=P:problem=mixed beam	!	!LO:DY:t=forte	!LO:TX:t=P:problem=mixed beam	!	!	!LO:TUP:a:problem=klamra łukowa	!	!	!	!	!	!	!	!	!
8G#\L	6	f	8G#\L	.	2.ryy	24ee\LL	f	2.ryy	2.ryy	0.r	.	2.ryy	2.ryy	2.ryy	2.ryy
.	.	.	.	.	.	24b\	.	.	.	.	.	.	.	.	.
.	.	.	.	.	.	24ddn\JJ	.	.	.	.	.	.	.	.	.
*	*	*	*	*	*	*Xtuplet	*	*	*	*	*	*	*	*	*
8A\	.	.	8A\	.	.	24cc#\LL	.	.	.	.	.	.	.	.	.
.	.	.	.	.	.	24a\	.	.	.	.	.	.	.	.	.
.	.	.	.	.	.	24f#\JJ	.	.	.	.	.	.	.	.	.
.	.	.	.	.	.	8qqg#/	.	.	.	.	.	.	.	.	.
!	!	!	!	!	!	!LO:N:vis=8./L	!	!	!	!	!	!	!	!	!
8B\	6 4	.	8B\	.	.	4.f#TL/	.	.	.	.	.	.	.	.	.
8A\	.	.	8A\	.	.	.	.	.	.	.	.	.	.	.	.
8B\	5 #	.	8B\	.	.	.	.	.	.	.	.	.	.	.	.
!	!	!	!	!	!	!LO:N:vis=16/Jk	!	!	!	!	!	!	!	!	!
8BB/J	.	.	8BB/J	.	.	8eJk/	.	.	.	.	.	.	.	.	.
!	!	!	!	!	!	!LO:LB:g=original	!	!	!	!	!	!	!	!	!
=36	=36	=36	=36	=36	=36	=36	=36	=36	=36	=36	=36	=36	=36	=36	=36
*	*	*	*	*	*	*^	*	*	*	*	*	*	*	*	*
2E\	.	.	2E\	.	2.ryy	16ryy	16e\LL	.	2.ryy	2.ryy	.	.	2.ryy	2.ryy	2.ryy	2.ryy
.	.	.	.	.	.	16b/KL	16g#\	.	.	.	.	.	.	.	.	.
.	.	.	.	.	.	8b/J	16a\	.	.	.	.	.	.	.	.	.
.	.	.	.	.	.	.	16f#\JJ	.	.	.	.	.	.	.	.	.
.	.	.	.	.	.	8b/L	8g#\L	.	.	.	.	.	.	.	.	.
.	.	.	.	.	.	8ee/	8g#\	.	.	.	.	.	.	.	.	.
4A\	6 5	.	4A\	.	.	8ee/	8f#\	.	.	.	.	.	.	.	.	.
.	#4r 2	.	.	.	.	8dd#X/J	8f#\J	.	.	.	.	.	.	.	.	.
=37	=37	=37	=37	=37	=37	=37	=37	=37	=37	=37	=37	=37	=37	=37	=37	=37
8G#\L	6	.	8G#\L	.	2.ryy	16ee/LL	16e\LL	.	2.ryy	2.ryy	.	.	2.ryy	2.ryy	2.ryy	2.ryy
.	.	.	.	.	.	16b/J	16g#\	.	.	.	.	.	.	.	.	.
8D#X\J	6 5	.	8D#X\J	.	.	8b/J	16a\	.	.	.	.	.	.	.	.	.
.	.	.	.	.	.	.	16f#\JJ	.	.	.	.	.	.	.	.	.
!LO:TX:t=P:problem=mixed beam	!	!	!	!	!	!	!	!	!	!	!	!	!	!	!	!
8E\L	.	.	8E/L	.	.	8b/L	8g#\L	.	.	.	.	.	.	.	.	.
8E\	.	.	8E/	.	.	8ee/	8g#\	.	.	.	.	.	.	.	.	.
8AA/	6 5	.	8AA/	.	.	8ee/	8f#\	.	.	.	.	.	.	.	.	.
8AA/J	#4r 2	.	8AA/J	.	.	8dd#X/J	8f#\J	.	.	.	.	.	.	.	.	.
=38	=38	=38	=38	=38	=38	=38	=38	=38	=38	=38	=38	=38	=38	=38	=38	=38
!LO:TX:t=P:problem=mixed beam	!	!	!LO:TX:t=P:problem=mixed beam	!	!	!	!	!	!	!	!	!	!	!	!	!
8GG#/L	6	.	8GG#/L	.	2.ryy	4ee 4b 4e/	2ryy	.	2.ryy	2.ryy	.	.	2.ryy	2.ryy	2.ryy	2.ryy
8E\J	.	.	8E\J	.	.	.	.	.	.	.	.	.	.	.	.	.
*	*	*	*	*	*	*tuplet	*	*	*	*	*	*	*	*	*	*
!	!	!	!	!	!	!LO:TUP:a:problem=klamra łukowa	!	!	!	!	!	!	!	!	!	!
8A\L	.	.	8A\L	.	.	24cc#\LL	.	.	.	.	.	.	.	.	.	.
.	.	.	.	.	.	24b\	.	.	.	.	.	.	.	.	.	.
.	.	.	.	.	.	24a\JJ	.	.	.	.	.	.	.	.	.	.
!	!	!	!	!	!	!LO:TUP:a:problem=klamra łukowa	!	!	!	!	!	!	!	!	!	!
8F#\J	.	.	8F#\J	.	.	24ccc#\LL	.	.	.	.	.	.	.	.	.	.
.	.	.	.	.	.	24bb\	.	.	.	.	.	.	.	.	.	.
.	.	.	.	.	.	24aa\JJ	.	.	.	.	.	.	.	.	.	.
!LO:TX:t=P:problem=mixed beam	!	!	!LO:TX:t=P:problem=mixed beam	!	!	!	!	!	!	!	!	!	!	!	!	!
8B\L	6 4	.	8B\L	.	.	8ryy	16gg#\LL	.	.	.	.	.	.	.	.	.
.	.	.	.	.	.	.	16aa\J	.	.	.	.	.	.	.	.	.
!	!	!	!	!	!	!LO:N:vis=16	!	!	!	!	!	!	!	!	!	!
8BB/J	7 #	.	8BB/J	.	.	8ff#/	8b\J	.	.	.	.	.	.	.	.	.
!LO:LB:g=original	!	!	!	!	!	!	!	!	!	!	!	!	!	!	!	!
=39	=39	=39	=39	=39	=39	=39	=39	=39	=39	=39	=39	=39	=39	=39	=39	=39
!	!	!	!	!	!	!	!	!	!	!	!LO:TX:a:t=᛭	!	!	!	!	!
!	!	!	!	!	!	!	!	!	!	!	!LO:TX:b:t=᛭	!	!	!	!	!
.	.	.	.	.	.	8qqff#/	8qqb\	.	.	.	.	.	.	.	.	.
4E\	.	.	4E\	.	2.ryy	4gg#/	4ee\	.	2.ryy	2.ryy	4r	.	2.ryy	2.ryy	2.ryy	2.ryy
[2Gn\	6	p	2Gn\	.	.	4r	4ryy	.	.	.	4e\	Be-	.	.	.	.
.	.	.	.	.	.	4r	4ryy	.	.	.	4c#/	-ne-	.	.	.	.
*	*	*	*	*	*	*v	*v	*	*	*	*	*	*	*	*	*
=40	=40	=40	=40	=40	=40	=40	=40	=40	=40	=40	=40	=40	=40	=40	=40
4G\]	4 #2r	.	4Gny\	.	2.ryy	1.r	.	2.ryy	2.ryy	2A#X/	-dic-	2.ryy	2.ryy	2.ryy	2.ryy
4F#\	#3r	.	4F#\	.	.	.	.	.	.	.	.	.	.	.	.
4E\	6 #4r n3r	.	4E\	.	.	.	.	.	.	4gn\	.	.	.	.	.
!	!	!	!LO:LB:g=original	!	!	!	!	!	!	!	!	!	!	!	!
=41	=41	=41	=41	=41	=41	=41	=41	=41	=41	=41	=41	=41	=41	=41	=41
!	!	!	!	!	!	!	!	!	!	!LO:SIC:v:s=8qqgn/	!	!	!	!	!
.	.	.	.	.	.	.	.	.	.	8qqg#/	.	.	.	.	.
8D\L	6	.	8D\L	.	2.ryy	.	.	2.ryy	2.ryy	2f#\	-tus	2.ryy	2.ryy	2.ryy	2.ryy
16B\L	.	.	16B\L	.	.	.	.	.	.	.	.	.	.	.	.
16c#\JJ	.	.	16c#\JJ	.	.	.	.	.	.	.	.	.	.	.	.
8d\L	6	.	8d\L	.	.	.	.	.	.	.	.	.	.	.	.
8B\	.	.	8B\	.	.	.	.	.	.	.	.	.	.	.	.
8c#\	6\	.	8c#\	.	.	.	.	.	.	4e\	qui	.	.	.	.
8A#X\J	.	.	8A#X\J	.	.	.	.	.	.	.	.	.	.	.	.
!	!	!	!	!	!	!LO:LB:g=original	!	!	!	!	!	!	!	!	!
=42	=42	=42	=42	=42	=42	=42	=42	=42	=42	=42	=42	=42	=42	=42	=42
*	*	*	*	*	*	*^	*	*	*	*	*	*	*	*	*
2B\	.	.	2B\	.	2.ryy	16ryy	16b\LL	.	2.ryy	2.ryy	8d\L	ve-	2.ryy	2.ryy	2.ryy	2.ryy
.	.	.	.	.	.	16ff#/KL	16dd\	.	.	.	.	.	.	.	.	.
.	.	.	.	.	.	8ff#/J	16ee\	.	.	.	8c#\J	.	.	.	.	.
.	.	.	.	.	.	.	16cc#\JJ	.	.	.	.	.	.	.	.	.
.	.	.	.	.	.	8ff#/L	8dd\L	.	.	.	4B/	-nit	.	.	.	.
.	.	.	.	.	.	8bb/	8dd\	.	.	.	.	.	.	.	.	.
4e\	6 5	.	4e\	.	.	8bb/	8cc#\	.	.	.	4r	.	.	.	.	.
.	#4r 2	.	.	.	.	8aa#X/J	8cc#\J	.	.	.	.	.	.	.	.	.
=43	=43	=43	=43	=43	=43	=43	=43	=43	=43	=43	=43	=43	=43	=43	=43	=43
!	!	!	!	!	!	!	!	!	!	!	!LO:TX:a:t=1	!	!	!	!	!
8d\L	6	.	8d\L	.	2.ryy	16bb/LL	16b\LL	.	2.ryy	2.ryy	2.r	.	2.ryy	2.ryy	2.ryy	2.ryy
.	.	.	.	.	.	16ff#/J	16dd\	.	.	.	.	.	.	.	.	.
8A#X\J	6 5	.	8A#X\J	.	.	8ff#/J	16ee\	.	.	.	.	.	.	.	.	.
.	.	.	.	.	.	.	16cc#\JJ	.	.	.	.	.	.	.	.	.
8B\L	.	.	8B\L	.	.	8ff#/L	8dd\L	.	.	.	.	.	.	.	.	.
8B\	.	.	8B\	.	.	8bb/	8dd\	.	.	.	.	.	.	.	.	.
8E\	6 5	.	8E\	.	.	8bb/	8cc#\	.	.	.	.	.	.	.	.	.
!	!	!	!	!	!	!	!	!	!	!	!LO:TX:a:t=Vi=	!	!	!	!	!
8E\J	#4r 2	.	8E\J	.	.	8aa#X/J	8cc#\J	.	.	.	.	.	.	.	.	.
!	!	!	!	!	!	!	!	!	!	!	!LO:LB:g=original	!	!	!	!	!
=44	=44	=44	=44	=44	=44	=44	=44	=44	=44	=44	=44	=44	=44	=44	=44	=44
!	!	!	!	!	!	!LO:SIC:v:s=8qqaa#/	!	!	!	!	!	!	!	!	!	!
.	.	.	.	.	.	8qqaa/	8qqcc#\	.	.	.	.	.	.	.	.	.
8D/L	6	.	8D/L	.	2.ryy	4bb/	4dd\	.	2.ryy	2.ryy	4r	.	2.ryy	2.ryy	2.ryy	2.ryy
8BB/J	.	.	8BB/J	.	.	.	.	.	.	.	.	.	.	.	.	.
!	!	!	!	!	!	!	!	!	!	!	!LO:TX:a:t==de	!	!	!	!	!
8E\L	n	.	8E\L	.	.	4r	4ryy	.	.	.	4gn\	qui	.	.	.	.
8B\J	.	.	8B\J	.	.	.	.	.	.	.	.	.	.	.	.	.
8Gn\L	6	.	8Gn\L	.	.	4r	4ryy	.	.	.	4e\	ve-	.	.	.	.
8E\J	.	.	8E\J	.	.	.	.	.	.	.	.	.	.	.	.	.
*	*	*	*	*	*	*v	*v	*	*	*	*	*	*	*	*	*
=45	=45	=45	=45	=45	=45	=45	=45	=45	=45	=45	=45	=45	=45	=45	=45
.	.	.	.	.	.	.	.	.	.	8qqd/	.	.	.	.	.
!	!	!	!	!	!	!LO:TX:a:t=2.	!	!	!	!	!	!	!	!	!
4A\	.	.	4A\	.	2.ryy	1.r	.	2.ryy	2.ryy	2c#/	-nit	2.ryy	2.ryy	2.ryy	2.ryy
4AA/	.	.	4AA/	.	.	.	.	.	.	.	.	.	.	.	.
4D/	6	.	4D\	.	.	.	.	.	.	4b\	in	.	.	.	.
=46	=46	=46	=46	=46	=46	=46	=46	=46	=46	=46	=46	=46	=46	=46	=46
8C#/L	6	.	8C#/L	.	2.ryy	.	.	2.ryy	2.ryy	4.a\	no-	2.ryy	2.ryy	2.ryy	2.ryy
8BB/	.	.	8BB/	.	.	.	.	.	.	.	.	.	.	.	.
8AA/	.	.	8AA/	.	.	.	.	.	.	.	.	.	.	.	.
8BB/	.	.	8BB/	.	.	.	.	.	.	8a\	-mi-	.	.	.	.
8C#/	-5	.	8C#/	.	.	.	.	.	.	4gn\	-ne	.	.	.	.
8AA/J	.	.	8AA/J	.	.	.	.	.	.	.	.	.	.	.	.
!LO:LB:g=original	!	!	!	!	!	!	!	!	!	!	!	!	!	!	!
=47	=47	=47	=47	=47	=47	=47	=47	=47	=47	=47	=47	=47	=47	=47	=47
*	*	*	*	*	*	*^	*	*	*	*	*	*	*	*	*
2D\	.	.	2D\	.	2.ryy	16ryy	16d\LL	.	2.ryy	2.ryy	8f#\	Do-	2.ryy	2.ryy	2.ryy	2.ryy
.	.	.	.	.	.	16a/KL	16f#\	.	.	.	.	.	.	.	.	.
.	.	.	.	.	.	8a/J	16gn\	.	.	.	8e\	-mi-	.	.	.	.
.	.	.	.	.	.	.	16e\JJ	.	.	.	.	.	.	.	.	.
.	.	.	.	.	.	8a/L	8f#\L	.	.	.	4d\	-ni	.	.	.	.
.	.	.	.	.	.	8dd/	8f#\	.	.	.	.	.	.	.	.	.
4Gn\	6 5	.	4Gn\	.	.	8dd/	8e\	.	.	.	4r	.	.	.	.	.
*	*	*	*	*	*	*custos:d	*	*	*	*	*	*	*	*	*	*
*	*	*	*	*	*	*custos:dd	*	*	*	*	*	*	*	*	*	*
.	4 2	.	.	.	.	8cc#/J	8e\J	.	.	.	.	.	.	.	.	.
!	!	!	!	!	!	!LO:LB:g=original	!	!	!	!	!	!	!	!	!	!
=48	=48	=48	=48	=48	=48	=48	=48	=48	=48	=48	=48	=48	=48	=48	=48	=48
8F#\L	6	.	8F#\L	.	2.ryy	16dd/LL	16d\LL	.	2.ryy	2.ryy	2.r	.	2.ryy	2.ryy	2.ryy	2.ryy
.	.	.	.	.	.	16a/J	16f#\	.	.	.	.	.	.	.	.	.
8C#\J	6 -5	.	8C#\J	.	.	8a/J	16gn\	.	.	.	.	.	.	.	.	.
.	.	.	.	.	.	.	16e\JJ	.	.	.	.	.	.	.	.	.
8D/L	.	.	8D/L	.	.	8a/L	8f#\L	.	.	.	.	.	.	.	.	.
8D/	.	.	8D/	.	.	8dd/	8f#\	.	.	.	.	.	.	.	.	.
8GGn/	6 5	.	8GGn/	.	.	8dd/	8e\	.	.	.	.	.	.	.	.	.
8GG/J	4 2	.	8GG/J	.	.	8cc#/J	8e\J	.	.	.	.	.	.	.	.	.
*	*	*	*	*	*	*v	*v	*	*	*	*	*	*	*	*	*
=49	=49	=49	=49	=49	=49	=49	=49	=49	=49	=49	=49	=49	=49	=49	=49
8FF#/L	6	.	8FF#/L	.	2.ryy	4ff# 4a 4d/	.	2.ryy	2.ryy	4r	.	2.ryy	2.ryy	2.ryy	2.ryy
8DD/J	.	.	8DD/J	.	.	.	.	.	.	.	.	.	.	.	.
[2D/	3	.	[<2D\	.	.	4r	.	.	.	4f#\	Be-	.	.	.	.
.	6	.	.	.	.	4r	.	.	.	4f#\	-ne-	.	.	.	.
=50	=50	=50	=50	=50	=50	=50	=50	=50	=50	=50	=50	=50	=50	=50	=50
!	!	!	!	!	!	!LO:TX:a:t=2.	!	!	!	!	!	!	!	!	!
4D/]	#4r 2	.	4D/]	.	2.ryy	1.r	.	2.ryy	2.ryy	2g#X\	-dic-	2.ryy	2.ryy	2.ryy	2.ryy
4EE/	.	.	4EE/	.	.	.	.	.	.	.	.	.	.	.	.
4C#/	6	.	4C#/	.	.	.	.	.	.	4a\	-tus	.	.	.	.
!	!	!	!	!	!	!	!	!	!	!LO:LB:g=original	!	!	!	!	!
=51	=51	=51	=51	=51	=51	=51	=51	=51	=51	=51	=51	=51	=51	=51	=51
4GG#X/	6 5	.	4GG#X/	.	2.ryy	.	.	2.ryy	2.ryy	4dd\	qui	2.ryy	2.ryy	2.ryy	2.ryy
8AA/L	.	.	8AA/L	.	.	.	.	.	.	2cc#\	ve-	.	.	.	.
8BB/	.	.	8BB/	.	.	.	.	.	.	.	.	.	.	.	.
8C#/	6	.	8C#/	.	.	.	.	.	.	.	.	.	.	.	.
8D/J	.	.	8D/J	.	.	.	.	.	.	.	.	.	.	.	.
=52	=52	=52	=52	=52	=52	=52	=52	=52	=52	=52	=52	=52	=52	=52	=52
4E\	.	.	4E\	.	2.ryy	16r	.	2.ryy	2.ryy	2b\	-nit	2.ryy	2.ryy	2.ryy	2.ryy
.	.	.	.	.	.	16e/LL	.	.	.	.	.	.	.	.	.
.	.	.	.	.	.	16g#/	p	.	.	.	.	.	.	.	.
.	.	.	.	.	.	16b/JJ	.	.	.	.	.	.	.	.	.
4G#\	6	.	4G#\	.	.	(16ee\LL	.	.	.	.	.	.	.	.	.
.	.	.	.	.	.	16b\)	.	.	.	.	.	.	.	.	.
.	.	.	.	.	.	16gg#X\	.	.	.	.	.	.	.	.	.
.	.	.	.	.	.	16ee\JJ	.	.	.	.	.	.	.	.	.
4E\	7	.	4E\	.	.	16bb\LL|	.	.	.	4b\	in	.	.	.	.
.	.	.	.	.	.	(16dd\	.	.	.	.	.	.	.	.	.
.	.	.	.	.	.	16cc#\	.	.	.	.	.	.	.	.	.
.	.	.	.	.	.	16b\JJ)	.	.	.	.	.	.	.	.	.
!	!	!	!LO:LB:g=original	!	!	!	!	!	!	!	!	!	!	!	!
=53	=53	=53	=53	=53	=53	=53	=53	=53	=53	=53	=53	=53	=53	=53	=53
8AA/L	.	.	8AA/L	.	2.ryy	4a/	.	2.ryy	2.ryy	16cc#\LL	no-	2.ryy	2.ryy	2.ryy	2.ryy
.	.	.	.	.	.	.	.	.	.	16a\J	.	.	.	.	.
16AA/L	.	.	16AA/L	.	.	.	.	.	.	8ee\J	.	.	.	.	.
16BB/JJ	.	.	16BB/JJ	.	.	.	.	.	.	.	.	.	.	.	.
8C#\L	6	.	8C#\L	.	.	(4.aa\	.	.	.	(32ee\KLL	.	.	.	.	.
.	.	.	.	.	.	.	.	.	.	16.cc#\JJ)	.	.	.	.	.
8F#\J	.	.	8F#\J	.	.	.	.	.	.	(32a\KLL	.	.	.	.	.
.	.	.	.	.	.	.	.	.	.	16.f#\JJ)	.	.	.	.	.
8BB\L	7	.	8BB\L	.	.	.	.	.	.	(32dd\KLL	.	.	.	.	.
.	.	.	.	.	.	.	.	.	.	16.b\JJ)	.	.	.	.	.
8E\J	7	.	8E\J	.	.	8gg#\)	.	.	.	(32g#\KLL	.	.	.	.	.
.	.	.	.	.	.	.	.	.	.	16.e\JJ)	.	.	.	.	.
=54	=54	=54	=54	=54	=54	=54	=54	=54	=54	=54	=54	=54	=54	=54	=54
4A\	.	.	4A\	.	2.ryy	8eee\L	.	2.ryy	2.ryy	16cc#\LL	.	2.ryy	2.ryy	2.ryy	2.ryy
.	.	.	.	.	.	.	.	.	.	16a\J	.	.	.	.	.
.	6	.	.	.	.	8fff#\J	.	.	.	8dd#X\J	.	.	.	.	.
8c#\L	.	.	8c#\L	.	.	(4.aa\	.	.	.	(32ee\KLL	.	.	.	.	.
.	.	.	.	.	.	.	.	.	.	16.cc#\JJ)	.	.	.	.	.
8F#\J	.	.	8F#\J	.	.	.	.	.	.	(32a\KLL	.	.	.	.	.
.	.	.	.	.	.	.	.	.	.	16.f#\JJ)	.	.	.	.	.
8B\L	7	.	8B\L	.	.	.	.	.	.	(32ddn\KLL	.	.	.	.	.
.	.	.	.	.	.	.	.	.	.	16.b\JJ)	.	.	.	.	.
8E\J	7	.	8E\J	.	.	8gg#\)	.	.	.	(32g#\KLL	.	.	.	.	.
.	.	.	.	.	.	.	.	.	.	16.e\JJ)	.	.	.	.	.
!LO:LB:g=original	!	!	!	!	!	!LO:LB:g=original	!	!	!	!	!	!	!	!	!
=55	=55	=55	=55	=55	=55	=55	=55	=55	=55	=55	=55	=55	=55	=55	=55
!LO:TX:t=P:problem=mixed beam	!	!	!LO:TX:t=P:problem=mixed beam	!	!	!	!	!	!	!	!	!	!	!	!
8A\L	.	.	8A\L	.	2.ryy	16aa\LL	.	2.ryy	2.ryy	8cc#\	-mi-	2.ryy	2.ryy	2.ryy	2.ryy
.	.	.	.	.	.	16ee\	.	.	.	.	.	.	.	.	.
8D\	6 5	.	8D\	.	.	16ff#\	.	.	.	8b\	-ne	.	.	.	.
.	.	.	.	.	.	16dd\JJ	.	.	.	.	.	.	.	.	.
8E\	6 4	.	8E\	.	.	8cc#\	.	.	.	(4a\	Do-	.	.	.	.
8E\	.	.	8E\	.	.	4aa\	.	.	.	.	.	.	.	.	.
8EE/	5 4	.	8EE/	.	.	.	.	.	.	8.bT\)	.	.	.	.	.
8EE/J	3	.	8EE/J	.	.	8gg#t\	.	.	.	.	.	.	.	.	.
.	.	.	.	.	.	.	.	.	.	16b\	-mi-	.	.	.	.
!	!	!	!	!	!	!	!	!	!	!LO:LB:g=original	!	!	!	!	!
=56	=56	=56	=56	=56	=56	=56	=56	=56	=56	=56	=56	=56	=56	=56	=56
4AA/	.	.	4AA/	.	2.ryy	4aa\	.	2.ryy	2.ryy	4a\	-ni	2.ryy	2.ryy	2.ryy	2.ryy
4D/	-6 n	.	4D/	.	.	4r	.	.	.	8b-X\	qui	.	.	.	.
.	.	.	.	.	.	.	.	.	.	8b-\	ve-	.	.	.	.
4D/	.	.	4D/	.	.	4r	.	.	.	8b-\	-nit	.	.	.	.
.	.	.	.	.	.	.	.	.	.	8b-\	in	.	.	.	.
=57	=57	=57	=57	=57	=57	=57	=57	=57	=57	=57	=57	=57	=57	=57	=57
!	!	!	!	!	!	!	!	!	!	!LO:SIC:v:s=(4b-\	!	!	!	!	!
2Cn/	-7r 5\	.	2Cn/	.	2.ryy	1.r	.	2.ryy	2.ryy	(4b\	no-	2.ryy	2.ryy	2.ryy	2.ryy
.	.	.	.	.	.	.	.	.	.	8g#X\)	.	.	.	.	.
.	.	.	.	.	.	.	.	.	.	8g#\|	-mi-	.	.	.	.
4C#X/	6	.	4C#X/	.	.	.	.	.	.	4a\	-ne	.	.	.	.
=58	=58	=58	=58	=58	=58	=58	=58	=58	=58	=58	=58	=58	=58	=58	=58
8D\L	n	.	8D\L	.	2.ryy	.	.	2.ryy	2.ryy	[2.a\	Do-	2.ryy	2.ryy	2.ryy	2.ryy
8E\J	.	.	8E\J	.	.	.	.	.	.	.	.	.	.	.	.
4Fn\	6	.	4Fn\	.	.	.	.	.	.	.	.	.	.	.	.
4D#X\	n7r 5	.	4D#X\	.	.	.	.	.	.	.	.	.	.	.	.
=59	=59	=59	=59	=59	=59	=59	=59	=59	=59	=59	=59	=59	=59	=59	=59
2.E;\	6\ 4	.	2.E;\	.	2.ryy	2.r;	.	2.ryy	2.ryy	4a;\]	.	2.ryy	2.ryy	2.ryy	2.ryy
.	5 #	.	.	.	.	.	.	.	.	4.bnT\	.	.	.	.	.
.	.	.	.	.	.	.	.	.	.	8a\	-mi-	.	.	.	.
=60	=60	=60	=60	=60	=60	=60	=60	=60	=60	=60	=60	=60	=60	=60	=60
!LO:TX:t=P:problem=mixed beam	!	!	!LO:TX:t=P:problem=mixed beam	!	!	!	!LO:DY:t=for:rj	!	!	!	!	!	!	!	!
8AA/L	#	mf	8AA/L	.	2.ryy	(16c#/LL	f	2.ryy	2.ryy	4a\	-ni	2.ryy	2.ryy	2.ryy	2.ryy
.	.	.	.	.	.	16e/	.	.	.	.	.	.	.	.	.
8A\J	.	.	8A\J	.	.	16a/)	.	.	.	.	.	.	.	.	.
.	.	.	.	.	.	16cc#/JJ|	.	.	.	.	.	.	.	.	.
8c#\L	6	.	8c#\L	.	.	(32ee\KLL	.	.	.	4r	.	.	.	.	.
.	.	.	.	.	.	16.cc#\JJ)	.	.	.	.	.	.	.	.	.
8F#\J	.	.	8F#\J	.	.	(32a/KLL	.	.	.	.	.	.	.	.	.
.	.	.	.	.	.	16.f#/JJ)	.	.	.	.	.	.	.	.	.
8B\L	7	.	8B\L	.	.	(32dd\KLL	.	.	.	4r	.	.	.	.	.
.	.	.	.	.	.	16.b\JJ)	.	.	.	.	.	.	.	.	.
8E\J	7	.	8E\J	.	.	(32g#/KLL	.	.	.	.	.	.	.	.	.
.	.	.	.	.	.	16.e/JJ)	.	.	.	.	.	.	.	.	.
=61	=61	=61	=61	=61	=61	=61	=61	=61	=61	=61	=61	=61	=61	=61	=61
4A\	.	.	4A\	.	2.ryy	16cc#\LL	.	2.ryy	2.ryy	0.r	.	2.ryy	2.ryy	2.ryy	2.ryy
.	.	.	.	.	.	16a\J	.	.	.	.	.	.	.	.	.
*	*	*	*	*	*	*custos:ee	*	*	*	*	*	*	*	*	*
!	!	!	!	!	!	!	!LO:DY:t=pia	!	!	!	!	!	!	!	!
.	.	.	.	.	.	(8dd#X\J	p	.	.	.	.	.	.	.	.
!	!	!	!	!	!	!LO:LB:g=original	!	!	!	!	!	!	!	!	!
!	!	!	!	!	!	!LO:TX:a:t=P:problem=brak zakończenia łuku	!	!	!	!	!	!	!	!	!
8c#\L	6	.	8c#\L	.	.	(32ee\KLL)	.	.	.	.	.	.	.	.	.
.	.	.	.	.	.	16.cc#\JJ)	.	.	.	.	.	.	.	.	.
8F#\J	.	.	8F#\J	.	.	(32a/KLL	.	.	.	.	.	.	.	.	.
.	.	.	.	.	.	16.f#/JJ)	.	.	.	.	.	.	.	.	.
8B\L	7	.	8B\L	.	.	(32ddny\KLL	.	.	.	.	.	.	.	.	.
.	.	.	.	.	.	16.b\JJ)	.	.	.	.	.	.	.	.	.
8E\J	7	.	8E\J	.	.	(32g#/KLL	.	.	.	.	.	.	.	.	.
.	.	.	.	.	.	16.e/JJ)	.	.	.	.	.	.	.	.	.
!LO:LB:g=original	!	!	!	!	!	!	!	!	!	!	!	!	!	!	!
=62	=62	=62	=62	=62	=62	=62	=62	=62	=62	=62	=62	=62	=62	=62	=62
!	!	!	!	!	!	!LO:TUP:a:problem=klamra łukowa	!	!	!	!	!	!	!	!	!
8A\L	.	.	8A\L	.	2.ryy	24cc#\LL	.	2.ryy	2.ryy	.	.	2.ryy	2.ryy	2.ryy	2.ryy
.	.	.	.	.	.	24b\	.	.	.	.	.	.	.	.	.
.	.	.	.	.	.	24a\JJ	.	.	.	.	.	.	.	.	.
!	!	!	!	!	!	!LO:TUP:a:problem=klamra łukowa	!	!	!	!	!	!	!	!	!
8d\	.	.	8d\	.	.	24ff#\LL	.	.	.	.	.	.	.	.	.
.	.	.	.	.	.	24ee\	.	.	.	.	.	.	.	.	.
.	.	.	.	.	.	24dd\JJ	.	.	.	.	.	.	.	.	.
8e\	6 4	.	8e\	.	.	(4cc#t\	.	.	.	.	.	.	.	.	.
8e\	.	.	8e\	.	.	.	.	.	.	.	.	.	.	.	.
8E\	5 3	.	8E\	.	.	8.dd\L)	.	.	.	.	.	.	.	.	.
8E\J	.	.	8E\J	.	.	.	.	.	.	.	.	.	.	.	.
.	.	.	.	.	.	16b\Jk	.	.	.	.	.	.	.	.	.
=63	=63	=63	=63	=63	=63	=63	=63	=63	=63	=63	=63	=63	=63	=63	=63
*	*	*	*	*	*	*^	*	*	*	*	*	*	*	*	*
2A\	.	.	2A\	.	2.ryy	16ryy	(16f#\LL	.	2.ryy	2.ryy	.	.	2.ryy	2.ryy	2.ryy	2.ryy
.	.	.	.	.	.	16ee/KL	16cc#\)	.	.	.	.	.	.	.	.	.
.	.	.	.	.	.	8ee/J	16dd\	.	.	.	.	.	.	.	.	.
.	.	.	.	.	.	.	16b\JJ	.	.	.	.	.	.	.	.	.
.	.	.	.	.	.	8ee/L	8cc#\L	.	.	.	.	.	.	.	.	.
.	.	.	.	.	.	8aa/	8cc#\	.	.	.	.	.	.	.	.	.
4d\	6 5	.	4d\	.	.	8aa/	8b\	.	.	.	.	.	.	.	.	.
.	4 2	.	.	.	.	8gg#/J	8b\J	.	.	.	.	.	.	.	.	.
=64	=64	=64	=64	=64	=64	=64	=64	=64	=64	=64	=64	=64	=64	=64	=64	=64
8c#\L	6	.	8c#\L	.	2.ryy	16aa/LL	(>16a\LL	.	2.ryy	2.ryy	.	.	2.ryy	2.ryy	2.ryy	2.ryy
.	.	.	.	.	.	16ee/J	16cc#\)	.	.	.	.	.	.	.	.	.
8G#\	6 5	.	8G#\	.	.	8ee/J	16dd\	.	.	.	.	.	.	.	.	.
.	.	.	.	.	.	.	16b\JJ	.	.	.	.	.	.	.	.	.
8A\	.	.	8A\	.	.	8ee/L	8cc#\L	.	.	.	.	.	.	.	.	.
8A\	.	.	8A\	.	.	8aa/	8cc#\	.	.	.	.	.	.	.	.	.
8D\	6 5	.	8D\	.	.	8aa/	8b\	.	.	.	.	.	.	.	.	.
8D\J	4 2	.	8D\J	.	.	8gg#/J	8b\J	.	.	.	.	.	.	.	.	.
!	!	!	!LO:LB:g=original	!	!	!LO:LB:g=original	!	!	!	!	!	!	!	!	!	!
=65	=65	=65	=65	=65	=65	=65	=65	=65	=65	=65	=65	=65	=65	=65	=65	=65
8C#\L	6	.	8C#/L	.	2.ryy	4aa/	4a\	.	2.ryy	2.ryy	1.r	.	2.ryy	2.ryy	2.ryy	2.ryy
8F#\J	.	.	8F#/J	.	.	.	.	.	.	.	.	.	.	.	.	.
8D/L	.	.	8D/L	.	.	8ff#L 8a 8d/	4ryy	.	.	.	.	.	.	.	.	.
.	.	.	.	.	.	8qqee/	.	.	.	.	.	.	.	.	.	.
8BB/J	.	.	8BB/J	.	.	8dd/J	.	.	.	.	.	.	.	.	.	.
!LO:TX:t=P:problem=mixed beam	!	!	!LO:TX:t=P:problem=mixed beam	!	!	!	!	!	!	!	!	!	!	!	!	!
8E\L	4	.	8E\L	.	.	4bT/	8.e\L	.	.	.	.	.	.	.	.	.
8EE/J	3	.	8EE/J	.	.	.	.	.	.	.	.	.	.	.	.	.
.	.	.	.	.	.	.	16d\Jk	.	.	.	.	.	.	.	.	.
*	*	*	*	*	*	*v	*v	*	*	*	*	*	*	*	*	*
=66	=66	=66	=66	=66	=66	=66	=66	=66	=66	=66	=66	=66	=66	=66	=66
!LO:TX:b:i:t=Oſanna ùt Cum Sancto.\nAgnus Dei ùt Kyrie\nDona nobis ùt Christe.	!	!	!LO:TX:b:i:t=Osanna ut Cum Sancto.\nAgnus Dei ut Kyrie\nDona nobis ut Christe	!	!LO:TX:b:i:t=Oſanna ùt Cum Sancto.\nAgnus Dei ùt Kyrie.\nDona nobis ùt Chriſte.	!LO:TX:b:i:t=Oſanna ùt Cum Sancto.\nAgnus Dei ùt Kyrie.\nDona nobis ùt Chriſte.	!	!LO:TX:b:i:t=Oſanna ùt Cum Sancto.\nAgnus ùt Kyrie\nDona nobis ùt Christe	!LO:TX:b:i:t=Oſanna ùt Cum Sancto.\nAgnus ùt Kyrie\nDona nobis ùt Christe.	!LO:TX:b:i:t=Oſanna ùt Cum Sancto.\nAgnus ùt Kyrie\nDona nobis ùt Chriſte.	!	!LO:TX:b:i:t=Oſanna ùt Cum Sancto.\nAgnus ùt Kyrie.\nDona nobis ùt Chriſte.	!LO:TX:b:i:t=Oſanna ùt Cum Sancto.\nAgnus ùt Kyrie\nDona nobis Chriſte	!LO:TX:b:i:t=Oſanna ùt Cum Sancto.\nAgnus ùt Kyrie\nDona nobis ùt Chriſte.	!LO:TX:b:i:t=Oſanna ùt Cum Sancto.\nAgnus ùt Kyrie\nDona nobis ùt Chriſte.
2.AA/	.	.	2.AA/	.	2.ryy	2.a 2.e 2.c#/	.	2.ryy	2.ryy	.	.	2.ryy	2.ryy	2.ryy	2.ryy
==	==	==	==	==	==	==	==	==	==	==	==	==	==	==	==
*-	*-	*-	*-	*-	*-	*-	*-	*-	*-	*-	*-	*-	*-	*-	*-
!!!system-decoration: [(g1)]<s3>[(g2)][(g3)]<s10,s11>
!!!RDF**kern: > = above
!!!RDF**kern: < = below
!!!RDF**kern: | = vertical stroke
!!!RDF**dynam: p = "piano"
!!!RDF**dynam: f = "forte."
!!!RDF**dynam: mf = "mezzofor:"
!!!ENC: Andrzej Kubiczek
!!!END: 2022-04-01
!!!ENC: Andrzej Kubiczek
!!!END: 2022-04-01
